icons/spam-line.svg

<svg viewBox="0 0 24 24" fill="currentColor" xmlns="http://www.w3.org/2000/svg"><path d="M17.5 2.5L23 12L17.5 21.5H6.5L1 12L6.5 2.5H17.5ZM16.3469 4.5H7.65311L3.311 12L7.65311 19.5H16.3469L20.689 12L16.3469 4.5ZM11 15H13V17H11V15ZM11 7H13V13H11V7Z"/></svg>

<svg xmlns="http://www.w3.org/2000/svg" viewBox="0 0 24 24">
    <g>
        <path fill="none" d="M0 0h24v24H0z"/>
        <path fill-rule="nonzero" d="M17.5 2.5L23 12l-5.5 9.5h-11L1 12l5.5-9.5h11zm-1.153 2H7.653L3.311 12l4.342 7.5h8.694l4.342-7.5-4.342-7.5zM11 15h2v2h-2v-2zm0-8h2v6h-2V7z"/>
    </g>
</svg>
